flaticon/arrows/multiply-4.svg

<svg xmlns="http://www.w3.org/2000/svg" width="32" height="32" viewBox="0 0 24 24">
    <path d="M 23.570312 0.429688 L 20.570312 0.429688 C 20.335938 0.429688 20.144531 0.621094 20.144531 0.855469 C 20.144531 1.09375 20.335938 1.285156 20.570312 1.285156 L 22.535156 1.285156 L 12.429688 11.394531 L 12.429688 4.035156 L 14.695312 6.304688 C 14.78125 6.386719 14.890625 6.429688 15 6.429688 C 15.109375 6.429688 15.21875 6.386719 15.304688 6.304688 C 15.46875 6.136719 15.46875 5.863281 15.304688 5.695312 L 12.304688 2.695312 C 12.136719 2.53125 11.863281 2.53125 11.695312 2.695312 L 8.695312 5.695312 C 8.53125 5.863281 8.53125 6.136719 8.695312 6.304688 C 8.78125 6.386719 8.890625 6.429688 9 6.429688 C 9.109375 6.429688 9.21875 6.386719 9.304688 6.304688 L 11.570312 4.035156 L 11.570312 11.394531 L 1.464844 1.285156 L 3.429688 1.285156 C 3.664062 1.285156 3.855469 1.09375 3.855469 0.855469 C 3.855469 0.621094 3.664062 0.429688 3.429688 0.429688 L 0.429688 0.429688 C 0.191406 0.429688 0 0.621094 0 0.855469 L 0 3.855469 C 0 4.09375 0.191406 4.285156 0.429688 4.285156 C 0.664062 4.285156 0.855469 4.09375 0.855469 3.855469 L 0.855469 1.890625 L 11.570312 12.605469 L 11.570312 17.605469 C 10.121094 17.816406 9 19.0625 9 20.570312 C 9 22.226562 10.347656 23.570312 12 23.570312 C 13.652344 23.570312 15 22.226562 15 20.570312 C 15 19.0625 13.878906 17.816406 12.429688 17.605469 L 12.429688 12.605469 L 23.144531 1.890625 L 23.144531 3.855469 C 23.144531 4.09375 23.335938 4.285156 23.570312 4.285156 C 23.808594 4.285156 24 4.09375 24 3.855469 L 24 0.855469 C 24 0.621094 23.808594 0.429688 23.570312 0.429688 Z M 14.144531 20.570312 C 14.144531 21.753906 13.179688 22.714844 12 22.714844 C 10.820312 22.714844 9.855469 21.753906 9.855469 20.570312 C 9.855469 19.390625 10.820312 18.429688 12 18.429688 C 13.179688 18.429688 14.144531 19.390625 14.144531 20.570312 Z M 14.144531 20.570312"/>
</svg>

<svg xmlns="http://www.w3.org/2000/svg" width="32" height="32" viewBox="0 0 24 24">
    <path d="M23.57.43h-3a.427.427 0 0 0 0 .855h1.965L12.43 11.395v-7.36l2.265 2.27A.442.442 0 0 0 15 6.43c.11 0 .219-.043.305-.125a.439.439 0 0 0 0-.61l-3-3a.439.439 0 0 0-.61 0l-3 3a.439.439 0 0 0 0 .61A.442.442 0 0 0 9 6.43c.11 0 .219-.043.305-.125l2.265-2.27v7.36L1.465 1.285H3.43a.428.428 0 0 0 0-.855h-3A.428.428 0 0 0 0 .855v3a.428.428 0 1 0 .855 0V1.891L11.57 12.605v5A3.004 3.004 0 0 0 9 20.57c0 1.657 1.348 3 3 3s3-1.343 3-3a3.004 3.004 0 0 0-2.57-2.965v-5L23.145 1.891v1.964a.428.428 0 1 0 .855 0v-3a.428.428 0 0 0-.43-.425zm-9.425 20.14A2.148 2.148 0 0 1 12 22.715c-1.18 0-2.145-.961-2.145-2.145 0-1.18.965-2.14 2.145-2.14 1.18 0 2.145.96 2.145 2.14zm0 0"/>
</svg>
